images/speedometer-outline.svg

<svg height="30" viewBox="0 0 32 30" width="32" xmlns="http://www.w3.org/2000/svg"><g fill="none" fill-rule="evenodd" transform="translate(1 1.5)"><path d="m19.694 11.958-3.18 5.055c-.13.18-.289.339-.47.47-.905.631-2.152.416-2.794-.483s-.44-2.147.45-2.8l5.057-3.18c.235-.164.548-.164.783 0 .3.217.37.636.154.938z" fill="#000" fill-rule="nonzero"/><g stroke="#000" stroke-linecap="round" stroke-width="2"><path d="m15 .714c-8.283 0-15 6.71-15 14.994-.005 3.664 1.337 7.203 3.77 9.944.074.08.14.16.214.234.32.347.772.544 1.244.542.472 0 .922-.2 1.24-.549 2.196-2.385 5.29-3.743 8.532-3.743s6.336 1.358 8.531 3.743c.319.349.769.548 1.241.55.472 0 .923-.196 1.244-.543l.214-.234c2.433-2.74 3.775-6.28 3.77-9.944 0-8.284-6.717-14.994-15-14.994z" stroke-linejoin="round"/><path d="m15.017 5v2.143m10.697 8.588h-2.143m-17.142 0h-2.143m4.653-6.078-1.515-1.515m13.637 1.515 1.515-1.515"/></g></g></svg>

<svg xmlns="http://www.w3.org/2000/svg" width="32" height="30" viewBox="0 0 32 30">
    <g fill="none" fill-rule="evenodd">
        <path fill="#000" fill-rule="nonzero" d="M19.694 11.958l-3.18 5.055c-.13.18-.289.339-.47.47-.905.631-2.152.416-2.794-.483-.642-.899-.44-2.147.45-2.8l5.057-3.18c.235-.164.548-.164.783 0 .3.217.37.636.154.938z" transform="translate(1 1.5)"/>
        <path stroke="#000" stroke-linecap="round" stroke-linejoin="round" stroke-width="2" d="M15 .714c-8.283 0-15 6.71-15 14.994-.005 3.664 1.337 7.203 3.77 9.944.074.08.14.16.214.234.32.347.772.544 1.244.542.472 0 .922-.2 1.24-.549 2.196-2.385 5.29-3.743 8.532-3.743s6.336 1.358 8.531 3.743c.319.349.769.548 1.241.55.472 0 .923-.196 1.244-.543l.214-.234c2.433-2.74 3.775-6.28 3.77-9.944C30 7.424 23.283.714 15 .714z" transform="translate(1 1.5)"/>
        <path stroke="#000" stroke-linecap="round" stroke-width="2" d="M15.017 5L15.017 7.143M25.714 15.731L23.571 15.731M6.429 15.731L4.286 15.731M8.939 9.653L7.424 8.138M21.061 9.653L22.576 8.138" transform="translate(1 1.5)"/>
    </g>
</svg>
